packages/core/src/svgs/tokens/branded/KISHU.svg

<svg width="24" height="24" viewBox="0 0 24 24" fill="none" xmlns="http://www.w3.org/2000/svg">
<path d="M8.46469 4.15052C9.48342 3.65518 10.9514 3.32186 12.3861 3.37519C13.9127 3.37519 15.3033 3.89186 15.8073 4.15052C20.0085 1.51454 21.3339 2.31586 21.4712 3.04586C22.13 5.8025 21.2825 8.59515 20.7759 9.64643C22.5886 15.0518 21.9946 17.8885 21.4712 18.6305C19.3599 21.7683 15.3439 21.7683 10.6067 21.6171C5.87005 21.4644 4.50539 20.933 2.9094 18.6305C1.63208 16.7878 2.49474 12.5592 3.08606 10.6745C2.44207 9.40781 1.19809 4.00319 2.7414 3.04586C4.28472 2.08853 8.2127 4.01786 8.46469 4.15052Z" fill="#31006B"/>
<path d="M8.32757 4.73985C9.2909 4.27185 10.9642 3.86119 12.3209 3.91118C13.7648 3.91118 15.3768 4.41785 15.8542 4.66186C19.8275 2.16921 20.9274 2.84253 21.0569 3.53319C21.6802 6.13984 20.6769 8.57848 20.1974 9.57317C21.9109 14.6844 21.4507 17.5683 20.9561 18.2704C18.9602 21.2377 15.1621 21.2377 10.683 21.0944C6.20292 20.9504 4.87494 20.5838 3.40294 18.2704C2.26629 16.483 3.05895 12.3238 3.61828 10.5424C3.00896 9.34451 1.71296 4.31586 3.17229 3.41053C4.47894 2.59986 8.13358 4.62651 8.32757 4.73985Z" fill="white"/>
<path d="M12.2764 5.55182C10.9431 5.57315 10.0859 5.12515 9.82375 4.8985C4.61716 6.19448 1.75518 14.0718 3.27917 18.0798C4.49783 21.2864 9.70584 21.0717 12.3644 21.1444C13.7638 21.1444 17.0891 21.1444 18.9531 20.0623C21.3663 18.6623 21.483 16.8957 21.3663 15.7745C20.653 8.94645 16.4017 5.18582 14.7823 4.89783C14.5023 5.10716 13.6098 5.53115 12.2764 5.55182Z" fill="#F9EBD1"/>
<path d="M8.10965 14.565C8.57097 13.4225 10.963 12.7738 12.1023 12.5918C13.5329 12.5918 16.3276 14.1943 16.3276 15.3283C16.3276 16.8216 15.1636 20.365 12.1023 20.2451C9.041 20.125 7.53364 15.993 8.10965 14.565Z" fill="white"/>
<path d="M10.9514 15.2177C10.7369 15.2163 10.528 15.1491 10.3528 15.0251C10.1778 14.9012 10.0451 14.7263 9.97263 14.5244L9.74194 15.0144L10.2954 15.6777L13.0173 16.0124L14.4093 15.5458V14.889C14.3426 15.0684 14.076 15.4143 13.5466 15.3671C13.016 15.319 12.41 14.7851 12.1733 14.5244C12.0227 14.7637 11.5686 15.2364 10.9514 15.2177Z" fill="#DCC7E6"/>
<path d="M11.025 13.6092C11.1717 13.1531 11.9936 13.0837 12.2403 13.0944C13.115 13.0944 13.5222 13.4345 13.511 13.8618C13.5023 14.2037 12.7636 14.5318 12.3949 14.6531V15.3018C12.4471 15.433 12.7537 15.6978 13.5683 15.7071C14.3837 15.7157 14.4497 15.1244 14.3809 14.8272C14.6463 15.2464 14.783 15.5625 14.1149 16.0531C13.581 16.4457 13.3556 17.2711 13.3104 17.6351C13.439 18.3497 13.349 19.7584 11.9583 19.6758C10.2203 19.5731 10.647 17.7457 10.735 17.4218C10.8237 17.097 10.3976 16.3457 10.3083 16.0531C10.2203 15.7605 9.5763 15.3018 9.60104 14.969C9.6197 14.7038 9.89301 14.5425 10.0277 14.4944C9.85832 15.0958 10.381 15.5785 10.9124 15.5625C11.337 15.5497 11.823 15.3831 11.9944 15.3018V14.6531C11.5249 14.4865 10.8783 14.0645 11.025 13.6092Z" fill="#3B0364"/>
<path d="M11.5133 17.405C11.8665 17.447 12.0079 18.0332 12.0412 18.287C12.1465 17.9571 12.2472 17.4304 12.6012 17.4778C12.9545 17.5245 13.0125 17.8932 13.0026 18.1058C12.9918 18.3191 12.9599 19.3463 12.0412 19.367C11.1219 19.3883 10.9685 18.3184 10.9793 18.1837C10.9898 18.0484 11.1225 17.3584 11.5133 17.405Z" fill="#FB6E64"/>
<path d="M11.9651 18.687C11.4946 18.695 11.2146 18.3904 11.1332 18.237C11.0892 18.569 11.2059 19.2304 12.0211 19.2164C12.8358 19.2024 12.8498 18.5677 12.7552 18.2517C12.6885 18.3937 12.4359 18.679 11.9651 18.687Z" fill="#D85465"/>
<path d="M12.1883 13.3931C11.7809 13.3951 11.5855 13.5118 11.5388 13.5698C11.5388 13.7005 12.0988 13.7398 12.1883 13.7398C12.2782 13.7398 12.9816 13.6057 12.9842 13.5465C12.9875 13.4878 12.6975 13.3891 12.1883 13.3931Z" fill="#BD98DB"/>
<path d="M16.9867 11.0359C15.7081 11.0618 15.3954 12.1652 15.3995 12.7138C15.5555 12.3825 16.0908 11.6898 16.9861 11.5705C17.8821 11.4504 18.7294 12.1831 19.0408 12.5639C18.8887 12.0438 18.2648 11.0105 16.9867 11.0359ZM7.07687 11.0219C8.35486 11.0472 8.66752 12.1512 8.66352 12.6992C8.50819 12.3685 7.97219 11.6758 7.07687 11.5559C6.18088 11.4358 5.33356 12.1691 5.02222 12.5499C5.17422 12.0298 5.79822 10.9965 7.07687 11.0219ZM12.3228 12.3718C11.0622 12.2518 9.86952 13.2551 9.43148 13.7717C9.87279 13.4244 11.0408 12.7264 12.1815 12.7138C13.3228 12.7004 14.4548 13.5705 14.8774 14.0071C14.4209 13.3657 13.8988 12.5211 12.3228 12.3718Z" fill="#3B0364"/>
<path d="M12.2039 20.3117C7.4059 20.8836 4.15527 18.0244 3.13062 16.523C3.62861 18.5651 4.71792 19.4297 5.88725 20.3117C7.0559 21.193 14.9605 21.585 18.1618 20.3963C20.7232 19.4457 21.1278 17.3098 21.0099 16.3604C19.7339 18.1163 18.2024 19.5964 12.2039 20.3117Z" fill="#D3BDBF"/>
<path d="M20.1636 9.52311C19.3062 7.03318 17.4596 5.5212 16.6436 5.07655C19.1082 3.22789 20.2222 3.16189 20.4716 3.3599C21.9903 4.52254 20.8995 7.95318 20.1636 9.52311Z" fill="#F6EED4"/>
<path d="M17.0374 5.35318C18.5461 6.41717 19.4133 7.88316 19.662 8.66182C20.7021 6.90184 20.8421 4.99519 20.7427 4.1192C20.7394 3.89587 20.5507 3.45453 19.758 3.62186C18.9647 3.78986 17.5847 4.88185 17.0374 5.35318Z" fill="#480066"/>
<path d="M19.7305 7.72652C19.0365 6.47852 18.0972 5.62187 17.7139 5.34987C19.0499 4.39388 19.7552 4.04455 20.0425 3.95854C20.1212 3.93454 20.1959 3.97788 20.2265 4.05188C20.6252 5.02055 20.0719 6.88452 19.7305 7.72652Z" fill="#FF696E"/>
<path fill-rule="evenodd" clip-rule="evenodd" d="M18.5226 6.0832C18.8645 5.44186 19.4959 4.50322 19.9232 4.72854C20.1539 4.85054 20.2758 5.12388 20.3345 5.4192C20.3919 4.9052 20.3759 4.41521 20.2265 4.05188C20.1959 3.97788 20.1212 3.93454 20.0425 3.95854C19.7552 4.04455 19.0499 4.39388 17.7139 5.34987C17.8912 5.47587 18.1872 5.72653 18.5226 6.0832Z" fill="#DC546C"/>
<path d="M7.54963 5.20719C3.36166 2.46321 2.43633 4.33719 2.49767 5.61719C2.581 7.44983 3.27233 9.67647 3.60833 10.5605C4.42032 7.74184 5.99498 6.18718 6.6803 5.76185L7.54963 5.20719Z" fill="#F8EBDA"/>
<path d="M6.6989 5.76117C5.19024 6.82516 4.31559 8.64781 4.06692 9.4271C3.02693 7.66716 2.96626 5.47517 3.0656 4.59851C3.06893 4.37518 3.27426 3.97052 4.06692 4.13785C4.86025 4.30518 6.15156 5.28984 6.6989 5.76117Z" fill="#31006B"/>
<path d="M3.53309 4.7965C3.40243 6.31249 3.82443 7.73981 4.06643 8.29181C4.30376 7.78247 5.02175 6.55582 5.99642 5.72182C4.94842 5.02117 4.24709 4.69317 3.8631 4.56384C3.6991 4.50784 3.54776 4.62384 3.53309 4.7965Z" fill="#FD6B6C"/>
<path fill-rule="evenodd" clip-rule="evenodd" d="M3.55114 6.18115C3.59114 5.82249 3.68713 5.45182 3.8898 5.42382C4.14647 5.38849 4.89112 5.93516 5.37979 6.33249C5.57046 6.11783 5.77713 5.90915 5.99646 5.72182C4.94846 5.02117 4.24713 4.69317 3.86314 4.56384C3.69914 4.50784 3.5478 4.62384 3.53313 4.7965C3.4918 5.27449 3.5058 5.74515 3.55114 6.18115Z" fill="#D65969"/>
</svg>

<svg xmlns="http://www.w3.org/2000/svg" width="24" height="24" fill="none" viewBox="0 0 24 24">
    <path fill="#31006B" d="M8.465 4.15c1.018-.495 2.486-.828 3.921-.775 1.527 0 2.917.517 3.421.776 4.202-2.636 5.527-1.835 5.664-1.105.659 2.757-.189 5.55-.695 6.6 1.813 5.406 1.219 8.243.695 8.985-2.111 3.137-6.127 3.137-10.864 2.986-4.737-.153-6.102-.684-7.698-2.986-1.277-1.843-.414-6.072.177-7.956-.644-1.267-1.888-6.672-.345-7.63 1.544-.956 5.472.973 5.724 1.106"/>
    <path fill="#fff" d="M8.328 4.74c.963-.468 2.636-.879 3.993-.829 1.444 0 3.056.507 3.533.75 3.974-2.492 5.073-1.818 5.203-1.128.623 2.607-.38 5.045-.86 6.04 1.714 5.111 1.254 7.995.76 8.697-1.997 2.968-5.795 2.968-10.274 2.824-4.48-.144-5.808-.51-7.28-2.824-1.137-1.787-.344-5.946.215-7.728-.609-1.197-1.905-6.226-.446-7.131C4.48 2.6 8.134 4.627 8.328 4.74"/>
    <path fill="#F9EBD1" d="M12.276 5.552c-1.333.021-2.19-.427-2.452-.653-5.207 1.295-8.069 9.173-6.545 13.18 1.219 3.207 6.427 2.993 9.085 3.065 1.4 0 4.725 0 6.59-1.082 2.412-1.4 2.529-3.166 2.412-4.288-.713-6.828-4.964-10.588-6.584-10.876-.28.21-1.172.633-2.506.654"/>
    <path fill="#fff" d="M8.11 14.565c.461-1.142 2.853-1.791 3.992-1.973 1.43 0 4.226 1.602 4.226 2.736 0 1.494-1.164 5.037-4.226 4.917-3.061-.12-4.568-4.252-3.992-5.68"/>
    <path fill="#DCC7E6" d="M10.951 15.218a1.05 1.05 0 0 1-.978-.694l-.231.49.553.664 2.722.334 1.392-.466v-.657c-.066.18-.333.525-.862.478-.531-.048-1.137-.582-1.374-.843-.15.24-.604.712-1.222.694"/>
    <path fill="#3B0364" d="M11.025 13.61c.147-.457.969-.526 1.215-.516.875 0 1.282.34 1.271.768-.009.342-.747.67-1.116.791v.649c.052.131.359.396 1.173.405.816.009.882-.583.813-.88.265.42.402.736-.266 1.226-.534.393-.76 1.218-.805 1.582.129.715.039 2.123-1.352 2.04-1.738-.102-1.311-1.93-1.223-2.253.089-.325-.337-1.076-.427-1.369-.088-.293-.732-.751-.707-1.084.019-.265.292-.426.427-.475-.17.602.353 1.085.884 1.069.425-.013.911-.18 1.082-.261v-.649c-.47-.167-1.116-.588-.969-1.044"/>
    <path fill="#FB6E64" d="M11.513 17.405c.354.042.495.628.528.882.105-.33.206-.857.56-.81.353.047.411.416.402.629-.011.213-.043 1.24-.962 1.261-.92.021-1.072-1.049-1.062-1.183.01-.136.144-.826.534-.779"/>
    <path fill="#D85465" d="M11.965 18.687a.94.94 0 0 1-.832-.45c-.044.332.073.993.888.98.815-.015.829-.65.734-.965-.067.142-.32.427-.79.435"/>
    <path fill="#BD98DB" d="M12.188 13.393c-.407.002-.603.119-.65.177 0 .13.56.17.65.17s.794-.134.796-.194c.004-.058-.287-.157-.796-.153"/>
    <path fill="#3B0364" d="M16.987 11.036c-1.279.026-1.592 1.13-1.587 1.678.155-.332.69-1.024 1.586-1.144s1.743.613 2.055.994c-.152-.52-.776-1.553-2.054-1.528m-9.91-.014c1.278.025 1.59 1.13 1.587 1.677-.156-.33-.692-1.023-1.587-1.143-.896-.12-1.743.613-2.055.994.152-.52.776-1.554 2.055-1.528m5.246 1.35c-1.26-.12-2.453.883-2.892 1.4.442-.348 1.61-1.046 2.75-1.058 1.142-.014 2.274.856 2.696 1.293-.456-.641-.978-1.486-2.554-1.635"/>
    <path fill="#D3BDBF" d="M12.204 20.312c-4.798.572-8.049-2.288-9.073-3.789.498 2.042 1.587 2.907 2.756 3.789 1.169.881 9.074 1.273 12.275.084 2.561-.95 2.966-3.086 2.848-4.036-1.276 1.756-2.808 3.236-8.806 3.952"/>
    <path fill="#F6EED4" d="M20.164 9.523c-.858-2.49-2.704-4.002-3.52-4.446 2.464-1.85 3.578-1.915 3.828-1.717 1.518 1.163.427 4.593-.308 6.163"/>
    <path fill="#480066" d="M17.037 5.353c1.51 1.064 2.376 2.53 2.625 3.309 1.04-1.76 1.18-3.667 1.08-4.543-.003-.223-.191-.664-.984-.497s-2.173 1.26-2.72 1.731"/>
    <path fill="#FF696E" d="M19.73 7.727c-.694-1.248-1.633-2.105-2.016-2.377 1.336-.956 2.041-1.305 2.329-1.391.078-.024.153.019.184.093.398.969-.155 2.833-.497 3.675"/>
    <path fill="#DC546C" fill-rule="evenodd" d="M18.523 6.083c.341-.641.973-1.58 1.4-1.354.23.122.353.395.412.69.057-.514.04-1.004-.108-1.367-.031-.074-.106-.117-.184-.093-.288.086-.993.435-2.33 1.39.178.127.474.378.81.734" clip-rule="evenodd"/>
    <path fill="#F8EBDA" d="M7.55 5.207c-4.188-2.744-5.114-.87-5.052.41.083 1.833.774 4.06 1.11 4.943.812-2.818 2.387-4.373 3.072-4.798z"/>
    <path fill="#31006B" d="M6.699 5.761C5.19 6.825 4.316 8.648 4.067 9.427c-1.04-1.76-1.1-3.952-1.001-4.828.003-.224.208-.628 1-.461C4.86 4.305 6.153 5.29 6.7 5.76"/>
    <path fill="#FD6B6C" d="M3.533 4.797c-.13 1.515.291 2.943.533 3.495.238-.51.956-1.736 1.93-2.57-1.048-.7-1.749-1.029-2.133-1.158-.164-.056-.315.06-.33.232"/>
    <path fill="#D65969" fill-rule="evenodd" d="M3.551 6.181c.04-.359.136-.73.339-.757.256-.036 1.001.511 1.49.908a6 6 0 0 1 .616-.61c-1.048-.7-1.749-1.029-2.133-1.158-.164-.056-.315.06-.33.232-.041.478-.027.95.018 1.385" clip-rule="evenodd"/>
</svg>
